src/assets/filled/ArrowDown1.svg

<?xml version="1.0" encoding="UTF-8"?>
<svg width="24" height="24" viewBox="0 0 24 24" xmlns="http://www.w3.org/2000/svg">
 <path d="m16.19 2h-8.38c-3.64 0-5.81 2.17-5.81 5.81v8.37c0 3.65 2.17 5.82 5.81 5.82h8.37c3.64 0 5.81-2.17 5.81-5.81v-8.38c0.01-3.64-2.16-5.81-5.8-5.81zm0.63 12.24-4.29 4.29c-0.14 0.14-0.33 0.22-0.53 0.22s-0.39-0.08-0.53-0.22l-4.29-4.29c-0.29-0.29-0.29-0.77 0-1.06s0.77-0.29 1.06 0l3.01 3.01v-10.19c0-0.41 0.34-0.75 0.75-0.75s0.75 0.34 0.75 0.75v10.19l3.01-3.01c0.29-0.29 0.77-0.29 1.06 0 0.15 0.15 0.22 0.34 0.22 0.53s-0.08 0.39-0.22 0.53z"/>
</svg>

<svg width="24" height="24" viewBox="0 0 24 24"  xmlns="http://www.w3.org/2000/svg">
<path d="M16.19 2H7.81C4.17 2 2 4.17 2 7.81V16.18C2 19.83 4.17 22 7.81 22H16.18C19.82 22 21.99 19.83 21.99 16.19V7.81C22 4.17 19.83 2 16.19 2ZM16.82 14.24L12.53 18.53C12.39 18.67 12.2 18.75 12 18.75C11.8 18.75 11.61 18.67 11.47 18.53L7.18 14.24C6.89 13.95 6.89 13.47 7.18 13.18C7.47 12.89 7.95 12.89 8.24 13.18L11.25 16.19V6C11.25 5.59 11.59 5.25 12 5.25C12.41 5.25 12.75 5.59 12.75 6V16.19L15.76 13.18C16.05 12.89 16.53 12.89 16.82 13.18C16.97 13.33 17.04 13.52 17.04 13.71C17.04 13.9 16.96 14.1 16.82 14.24Z" />
</svg>
